icons/maia/apps/scalable/goobox.svg

<svg xmlns="http://www.w3.org/2000/svg" viewBox="0 0 48 48">
 <defs>
  <clipPath id="clipPath-824049301">
   <g transform="translate(0,-1004.3622)">
    <path d="m -24 13 c 0 1.105 -0.672 2 -1.5 2 -0.828 0 -1.5 -0.895 -1.5 -2 0 -1.105 0.672 -2 1.5 -2 0.828 0 1.5 0.895 1.5 2 z" transform="matrix(15.333333,0,0,11.5,414.99999,878.8622)" style="fill:#1890d0"/>
   </g>
  </clipPath>
  <linearGradient id="linearGradient4283" y1="47" x2="0" y2="1" gradientUnits="userSpaceOnUse">
   <stop style="stop-color:#49753f;stop-opacity:1"/>
   <stop offset="1" style="stop-color:#518246;stop-opacity:1"/>
  </linearGradient>
  <clipPath id="clipPath-588316483">
   <g transform="translate(0,-1004.3622)">
    <path d="m -24 13 c 0 1.105 -0.672 2 -1.5 2 -0.828 0 -1.5 -0.895 -1.5 -2 0 -1.105 0.672 -2 1.5 -2 0.828 0 1.5 0.895 1.5 2 z" transform="matrix(15.333333,0,0,11.5,414.99999,878.8622)" style="fill:#1890d0"/>
   </g>
  </clipPath>
  <linearGradient id="linear0" gradientUnits="userSpaceOnUse" y1="279.1" x2="0" y2="268.33" gradientTransform="matrix(2.797157,0,0,2.797157,-332.97333,-741.65338)">
   <stop style="stop-color:#c8c8c8;stop-opacity:1"/>
   <stop offset="1" style="stop-color:#eaeaea;stop-opacity:1"/>
  </linearGradient>
  <clipPath id="clipPath-124071972">
   <g transform="translate(0,-1004.3622)">
    <path d="m -24 13 c 0 1.105 -0.672 2 -1.5 2 -0.828 0 -1.5 -0.895 -1.5 -2 0 -1.105 0.672 -2 1.5 -2 0.828 0 1.5 0.895 1.5 2 z" transform="matrix(15.333333,0,0,11.5,414.99999,878.8622)" style="fill:#1890d0"/>
   </g>
  </clipPath>
  <clipPath id="clipPath-137054130">
   <g transform="translate(0,-1004.3622)">
    <path d="m -24 13 c 0 1.105 -0.672 2 -1.5 2 -0.828 0 -1.5 -0.895 -1.5 -2 0 -1.105 0.672 -2 1.5 -2 0.828 0 1.5 0.895 1.5 2 z" transform="matrix(15.333333,0,0,11.5,414.99999,878.8622)" style="fill:#1890d0"/>
   </g>
  </clipPath>
 </defs>
 <g>
  <path d="m 36.31 5 c 5.859 4.062 9.688 10.831 9.688 18.5 c 0 12.426 -10.07 22.5 -22.5 22.5 c -7.669 0 -14.438 -3.828 -18.5 -9.688 c 1.037 1.822 2.306 3.499 3.781 4.969 c 4.085 3.712 9.514 5.969 15.469 5.969 c 12.703 0 23 -10.298 23 -23 c 0 -5.954 -2.256 -11.384 -5.969 -15.469 c -1.469 -1.475 -3.147 -2.744 -4.969 -3.781 z m 4.969 3.781 c 3.854 4.113 6.219 9.637 6.219 15.719 c 0 12.703 -10.297 23 -23 23 c -6.081 0 -11.606 -2.364 -15.719 -6.219 c 4.16 4.144 9.883 6.719 16.219 6.719 c 12.703 0 23 -10.298 23 -23 c 0 -6.335 -2.575 -12.06 -6.719 -16.219 z" style="opacity:0.05"/>
  <path d="m 41.28 8.781 c 3.712 4.085 5.969 9.514 5.969 15.469 c 0 12.703 -10.297 23 -23 23 c -5.954 0 -11.384 -2.256 -15.469 -5.969 c 4.113 3.854 9.637 6.219 15.719 6.219 c 12.703 0 23 -10.298 23 -23 c 0 -6.081 -2.364 -11.606 -6.219 -15.719 z" style="opacity:0.1"/>
  <path d="m 31.25 2.375 c 8.615 3.154 14.75 11.417 14.75 21.13 c 0 12.426 -10.07 22.5 -22.5 22.5 c -9.708 0 -17.971 -6.135 -21.12 -14.75 a 23 23 0 0 0 44.875 -7 a 23 23 0 0 0 -16 -21.875 z" style="opacity:0.2"/>
 </g>
 <g>
  <path d="m 24 1 c 12.703 0 23 10.297 23 23 c 0 12.703 -10.297 23 -23 23 -12.703 0 -23 -10.297 -23 -23 0 -12.703 10.297 -23 23 -23 z" style="fill:url(#linearGradient4283);fill-opacity:1"/>
 </g>
 <g>
  <g style="clip-path:url(#clipPath-824049301)">
   <!-- color: #7dc06d -->
  </g>
 </g>
 <g>
  <path d="m 40.03 7.531 c 3.712 4.084 5.969 9.514 5.969 15.469 0 12.703 -10.297 23 -23 23 c -5.954 0 -11.384 -2.256 -15.469 -5.969 4.178 4.291 10.01 6.969 16.469 6.969 c 12.703 0 23 -10.298 23 -23 0 -6.462 -2.677 -12.291 -6.969 -16.469 z" style="opacity:0.1"/>
 </g>
 <g transform="scale(3.543307,3.543307)">
  <g transform="scale(0.28222223,0.28222223)">
   <g>
    <g>
     <g style="clip-path:url(#clipPath-588316483)">
      <!-- color: #409bcb -->
      <g>
       <path d="m 25 10 c -8.285 0 -15 6.715 -15 15 c 0 8.281 6.715 14.996 15 14.996 c 8.281 0 14.996 -6.715 14.996 -14.996 0 -8.285 -6.715 -15 -14.996 -15 z m 0 12.859 c 0.59 0 1.129 0.238 1.516 0.621 0.387 0.387 0.625 0.926 0.625 1.52 0 0.59 -0.238 1.129 -0.625 1.516 -0.387 0.387 -0.926 0.625 -1.516 0.625 -0.594 0 -1.133 -0.238 -1.52 -0.625 -0.383 -0.387 -0.621 -0.926 -0.621 -1.516 0 -0.594 0.238 -1.133 0.621 -1.52 0.387 -0.383 0.926 -0.621 1.52 -0.621 z" style="fill:#000;fill-opacity:0.098;stroke:none;fill-rule:evenodd"/>
       <path d="m 24 9 c -8.285 0 -15 6.715 -15 15 0 8.281 6.715 14.996 15 14.996 8.281 0 14.996 -6.715 14.996 -14.996 0 -8.285 -6.715 -15 -14.996 -15 m 0 12.859 c 0.59 0 1.129 0.238 1.516 0.621 0.387 0.387 0.625 0.926 0.625 1.52 0 0.59 -0.238 1.129 -0.625 1.516 -0.387 0.387 -0.926 0.625 -1.516 0.625 -0.594 0 -1.133 -0.238 -1.52 -0.625 c -0.383 -0.387 -0.621 -0.926 -0.621 -1.516 c 0 -0.594 0.238 -1.133 0.621 -1.52 0.387 -0.383 0.926 -0.621 1.52 -0.621 z" style="fill:url(#linear0);stroke:none;fill-rule:evenodd"/>
       <path d="m 34.47 34.68 c 0.691 -0.682 1.313 -1.439 1.863 -2.241 0.547 -0.799 1.023 -1.667 1.41 -2.569 0.387 -0.902 0.68 -1.847 0.883 -2.831 c 0.199 -0.983 0.309 -2 0.309 -3.039 l -10.635 0 c 0 0.625 -0.16 1.226 -0.39 1.766 -0.227 0.54 -0.616 1.026 -1.03 1.435 l 7.594 7.478" style="fill:#fff;fill-opacity:0.498;stroke:none;fill-rule:nonzero"/>
       <path d="m 13.496 13.289 c -0.688 0.684 -1.309 1.44 -1.855 2.248 -0.547 0.808 -1.02 1.674 -1.402 2.578 c -0.387 0.904 -0.68 1.851 -0.879 2.834 -0.203 0.986 -0.309 2.01 -0.309 3.051 l 10.664 0 c 0 -0.629 0.125 -1.23 0.359 -1.77 0.23 -0.544 0.563 -1.033 0.973 -1.44 l -7.539 -7.496 m -0.012 -0.004" style="fill:#fff;fill-opacity:0.498;stroke:none;fill-rule:nonzero"/>
       <path d="m 10.343 30.21 c 0.75 1.652 1.793 3.133 3.059 4.398 l 7.558 -7.566 c -0.359 -0.363 -0.669 -0.801 -0.88 -1.273" style="fill:#fff;fill-opacity:0.498;stroke:none;fill-rule:nonzero"/>
       <path d="M 34.602,13.398 27.04,20.96 c 0.363,0.363 0.67,0.801 0.885,1.273 l 9.736,-4.445 C 36.907,16.14 35.868,14.659 34.602,13.393" style="fill:#fff;fill-opacity:0.498;stroke:none;fill-rule:nonzero"/>
       <path d="m 28.29 24 c 0 0.397 -0.071 0.774 -0.172 1.139 l 10.348 2.861 c 0.355 -1.302 0.535 -2.647 0.535 -4 l -10.711 0 z" style="fill:#999;fill-opacity:0.498;stroke:none;fill-rule:nonzero"/>
       <path d="m 9.535 20.03 c -0.355 1.293 -0.535 2.629 -0.535 3.973 l 10.721 0 c 0 -0.393 0.069 -0.767 0.168 -1.129 l -10.354 -2.844" style="fill:#999;fill-opacity:0.498;stroke:none;fill-rule:nonzero"/>
       <path d="m 24 9 0 10.715 c 0.002 0 0.004 0 0.006 0 0.392 0 0.764 0.069 1.125 0.168 l 2.842 -10.348 c -1.293 -0.355 -2.629 -0.535 -3.973 -0.535" style="fill:#ff8dff;fill-opacity:0.498;stroke:none;fill-rule:nonzero"/>
       <path d="m 22.871 28.11 -2.844 10.352 c 1.293 0.355 2.629 0.535 3.973 0.535 l 0 -10.715 c -0.393 0 -0.768 -0.072 -1.129 -0.172 z" style="fill:#ff8dff;fill-opacity:0.498;stroke:none;fill-rule:nonzero"/>
      </g>
     </g>
    </g>
   </g>
   <g transform="matrix(0.31934807,-0.31881336,0.30825822,0.27739353,1.8873265,21.743744)">
    <g style="clip-path:url(#clipPath-124071972)">
     <g transform="translate(1,1)">
      <g style="opacity:0.1">
       <!-- color: #5173bf -->
      </g>
     </g>
    </g>
   </g>
   <g transform="matrix(0.32013076,-0.32490868,0.30901372,0.28269696,1.9750363,21.295182)">
    <g style="clip-path:url(#clipPath-137054130)">
     <!-- color: #5173bf -->
    </g>
   </g>
  </g>
  <path transform="scale(0.28222223,0.28222223)" d="m 24.01 19.715 c -2.367 0 -4.285 1.918 -4.285 4.285 0 2.367 1.918 4.285 4.285 4.285 2.367 0 4.283 -1.918 4.283 -4.285 0 -2.367 -1.916 -4.285 -4.283 -4.285 z m -0.006 2.145 c 0.59 0 1.129 0.238 1.516 0.621 0.387 0.387 0.625 0.926 0.625 1.52 0 0.59 -0.238 1.129 -0.625 1.516 -0.387 0.387 -0.926 0.625 -1.516 0.625 -0.594 0 -1.133 -0.238 -1.52 -0.625 c -0.383 -0.387 -0.621 -0.926 -0.621 -1.516 c 0 -0.594 0.238 -1.133 0.621 -1.52 0.387 -0.383 0.926 -0.621 1.52 -0.621 z" style="fill:#999;fill-opacity:0.498;stroke:none;fill-rule:nonzero"/>
 </g>
</svg>

<svg xmlns="http://www.w3.org/2000/svg" viewBox="0 0 48 48">
 <defs>
  <linearGradient id="linearGradient4283" y1="47" x2="0" y2="1" gradientUnits="userSpaceOnUse">
   <stop style="stop-color:#49753f;stop-opacity:1"/>
   <stop offset="1" style="stop-color:#518246;stop-opacity:1"/>
  </linearGradient>
  <linearGradient id="linear0" gradientUnits="userSpaceOnUse" y1="279.1" x2="0" y2="268.33" gradientTransform="matrix(2.797157,0,0,2.797157,-332.97333,-741.65338)">
   <stop style="stop-color:#c8c8c8;stop-opacity:1"/>
   <stop offset="1" style="stop-color:#eaeaea;stop-opacity:1"/>
  </linearGradient>
 </defs>
 <path d="m 36.31,5 c 5.859,4.062 9.688,10.831 9.688,18.5 0,12.426 -10.07,22.5 -22.5,22.5 -7.669,0 -14.438,-3.828 -18.5,-9.688 1.037,1.822 2.306,3.499 3.781,4.969 4.085,3.712 9.514,5.969 15.469,5.969 12.703,0 23,-10.298 23,-23 0,-5.954 -2.256,-11.384 -5.969,-15.469 C 39.81,7.306 38.132,6.037 36.31,5 Z m 4.969,3.781 c 3.854,4.113 6.219,9.637 6.219,15.719 0,12.703 -10.297,23 -23,23 -6.081,0 -11.606,-2.364 -15.719,-6.219 4.16,4.144 9.883,6.719 16.219,6.719 12.703,0 23,-10.298 23,-23 0,-6.335 -2.575,-12.06 -6.719,-16.219 z" style="opacity:0.05"/>
 <path d="m 41.28 8.781 c 3.712 4.085 5.969 9.514 5.969 15.469 0 12.703 -10.297 23 -23 23 -5.954 0 -11.384 -2.256 -15.469 -5.969 4.113 3.854 9.637 6.219 15.719 6.219 12.703 0 23 -10.298 23 -23 0 -6.081 -2.364 -11.606 -6.219 -15.719 z" style="opacity:0.1"/>
 <path d="M 31.25,2.375 C 39.865,5.529 46,13.792 46,23.505 c 0,12.426 -10.07,22.5 -22.5,22.5 -9.708,0 -17.971,-6.135 -21.12,-14.75 a 23,23 0 0 0 44.875,-7 23,23 0 0 0 -16,-21.875 z" style="opacity:0.2"/>
 <path d="M 24,1 C 36.703,1 47,11.297 47,24 47,36.703 36.703,47 24,47 11.297,47 1,36.703 1,24 1,11.297 11.297,1 24,1 Z" style="fill:url(#linearGradient4283);fill-opacity:1"/>
 <path d="m 40.03,7.531 c 3.712,4.084 5.969,9.514 5.969,15.469 0,12.703 -10.297,23 -23,23 C 17.045,46 11.615,43.744 7.53,40.031 11.708,44.322 17.54,47 23.999,47 c 12.703,0 23,-10.298 23,-23 0,-6.462 -2.677,-12.291 -6.969,-16.469 z" style="opacity:0.1"/>
 <path d="m 25,10 c -8.285,0 -15,6.715 -15,15 0,8.281 6.715,14.996 15,14.996 8.281,0 14.996,-6.715 14.996,-14.996 0,-8.285 -6.715,-15 -14.996,-15 z m 0,12.859 c 0.59,0 1.129,0.238 1.516,0.621 0.387,0.387 0.625,0.926 0.625,1.52 0,0.59 -0.238,1.129 -0.625,1.516 -0.387,0.387 -0.926,0.625 -1.516,0.625 -0.594,0 -1.133,-0.238 -1.52,-0.625 C 23.097,26.129 22.859,25.59 22.859,25 c 0,-0.594 0.238,-1.133 0.621,-1.52 0.387,-0.383 0.926,-0.621 1.52,-0.621 z" style="fill:#000;fill-opacity:0.098;stroke:none;fill-rule:evenodd"/>
 <path d="M 24,9 C 15.715,9 9,15.715 9,24 9,32.281 15.715,38.996 24,38.996 32.281,38.996 38.996,32.281 38.996,24 38.996,15.715 32.281,9 24,9 m 0,12.859 c 0.59,0 1.129,0.238 1.516,0.621 0.387,0.387 0.625,0.926 0.625,1.52 0,0.59 -0.238,1.129 -0.625,1.516 -0.387,0.387 -0.926,0.625 -1.516,0.625 -0.594,0 -1.133,-0.238 -1.52,-0.625 C 22.097,25.129 21.859,24.59 21.859,24 c 0,-0.594 0.238,-1.133 0.621,-1.52 0.387,-0.383 0.926,-0.621 1.52,-0.621 z" style="fill:url(#linear0);stroke:none;fill-rule:evenodd"/>
 <path d="m 34.47,34.68 c 0.691,-0.682 1.313,-1.439 1.863,-2.241 0.547,-0.799 1.023,-1.667 1.41,-2.569 0.387,-0.902 0.68,-1.847 0.883,-2.831 0.199,-0.983 0.309,-2 0.309,-3.039 L 28.3,24 c 0,0.625 -0.16,1.226 -0.39,1.766 -0.227,0.54 -0.616,1.026 -1.03,1.435 l 7.594,7.478" style="fill:#fff;fill-opacity:0.498;stroke:none;fill-rule:nonzero"/>
 <path d="m 13.496,13.289 c -0.688,0.684 -1.309,1.44 -1.855,2.248 -0.547,0.808 -1.02,1.674 -1.402,2.578 C 9.852,19.019 9.559,19.966 9.36,20.949 9.157,21.935 9.051,22.959 9.051,24 l 10.664,0 c 0,-0.629 0.125,-1.23 0.359,-1.77 0.23,-0.544 0.563,-1.033 0.973,-1.44 L 13.508,13.294 M 13.496,13.29" style="fill:#fff;fill-opacity:0.498;stroke:none;fill-rule:nonzero"/>
 <path d="m 10.343 30.21 c 0.75 1.652 1.793 3.133 3.059 4.398 l 7.558 -7.566 c -0.359 -0.363 -0.669 -0.801 -0.88 -1.273" style="fill:#fff;fill-opacity:0.498;stroke:none;fill-rule:nonzero"/>
 <path d="M 34.602,13.398 27.04,20.96 c 0.363,0.363 0.67,0.801 0.885,1.273 l 9.736,-4.445 C 36.907,16.14 35.868,14.659 34.602,13.393" style="fill:#fff;fill-opacity:0.498;stroke:none;fill-rule:nonzero"/>
 <path d="m 28.29,24 c 0,0.397 -0.071,0.774 -0.172,1.139 L 38.466,28 c 0.355,-1.302 0.535,-2.647 0.535,-4 L 28.29,24 Z" style="fill:#999;fill-opacity:0.498;stroke:none;fill-rule:nonzero"/>
 <path d="M 9.535,20.03 C 9.18,21.323 9,22.659 9,24.003 l 10.721,0 c 0,-0.393 0.069,-0.767 0.168,-1.129 L 9.535,20.03" style="fill:#999;fill-opacity:0.498;stroke:none;fill-rule:nonzero"/>
 <path d="m 24,9 0,10.715 c 0.002,0 0.004,0 0.006,0 0.392,0 0.764,0.069 1.125,0.168 L 27.973,9.535 C 26.68,9.18 25.344,9 24,9" style="fill:#ff8dff;fill-opacity:0.498;stroke:none;fill-rule:nonzero"/>
 <path d="m 22.871 28.11 -2.844 10.352 c 1.293 0.355 2.629 0.535 3.973 0.535 l 0 -10.715 c -0.393 0 -0.768 -0.072 -1.129 -0.172 z" style="fill:#ff8dff;fill-opacity:0.498;stroke:none;fill-rule:nonzero"/>
 <path d="m 24.01 19.715 c -2.367 0 -4.285 1.918 -4.285 4.285 0 2.367 1.918 4.285 4.285 4.285 2.367 0 4.283 -1.918 4.283 -4.285 0 -2.367 -1.916 -4.285 -4.283 -4.285 z m -0.006 2.145 c 0.59 0 1.129 0.238 1.516 0.621 0.387 0.387 0.625 0.926 0.625 1.52 0 0.59 -0.238 1.129 -0.625 1.516 -0.387 0.387 -0.926 0.625 -1.516 0.625 -0.594 0 -1.133 -0.238 -1.52 -0.625 -0.383 -0.387 -0.621 -0.926 -0.621 -1.516 0 -0.594 0.238 -1.133 0.621 -1.52 0.387 -0.383 0.926 -0.621 1.52 -0.621 z" style="fill:#999;fill-opacity:0.498;stroke:none;fill-rule:nonzero"/>
</svg>
